src/assets/images/connectors/walletlink.svg

<svg width="43" height="43" viewBox="0 0 43 43" fill="none" xmlns="http://www.w3.org/2000/svg">
<path d="M21.0145 41.4056C16.3048 41.4089 11.7389 39.7826 8.0919 36.8024C4.44487 33.8223 1.94134 29.6721 1.0062 25.0561C0.0710599 20.4401 0.761916 15.6427 2.96152 11.4782C5.16112 7.31362 8.73396 4.03842 13.0737 2.20846C18.059 0.102417 23.6767 0.0630391 28.6911 2.09899C33.7054 4.13494 37.7056 8.07945 39.8117 13.0648C41.9177 18.0501 41.9571 23.6678 39.9211 28.6822C37.8852 33.6965 33.9407 37.6967 28.9554 39.8027C26.4432 40.8659 23.7424 41.411 21.0145 41.4056ZM21.0145 8.7656C18.1827 8.76554 15.4385 9.74739 13.2494 11.5438C11.0603 13.3403 9.56191 15.8402 9.00944 18.6176C8.45696 21.3951 8.88462 24.2781 10.2196 26.7756C11.5545 29.273 13.7141 31.2303 16.3304 32.314C18.9466 33.3976 21.8577 33.5406 24.5676 32.7185C27.2775 31.8964 29.6184 30.1601 31.1917 27.8055C32.7649 25.4508 33.4729 22.6235 33.1953 19.8054C32.9176 16.9872 31.6713 14.3525 29.6688 12.3502C28.5349 11.2102 27.1862 10.3064 25.7007 9.69108C24.2152 9.0758 22.6224 8.76123 21.0145 8.7656Z" fill="#275FF1"/>
<path d="M22.7638 16.9258H19.2667C17.9791 16.9258 16.9352 17.9696 16.9352 19.2572V22.7544C16.9352 24.042 17.9791 25.0858 19.2667 25.0858H22.7638C24.0514 25.0858 25.0952 24.042 25.0952 22.7544V19.2572C25.0952 17.9696 24.0514 16.9258 22.7638 16.9258Z" fill="#275FF1"/>
</svg>

<svg xmlns="http://www.w3.org/2000/svg" width="43" height="43" fill="none"><path fill="#275FF1" d="M21.015 41.406a20.4 20.4 0 0 1-7.941-39.198 20.406 20.406 0 0 1 15.881 37.595 20.3 20.3 0 0 1-7.94 1.603m0-32.64a12.24 12.24 0 1 0 8.654 3.584 12.16 12.16 0 0 0-8.654-3.584"/><path fill="#275FF1" d="M22.764 16.926h-3.497a2.33 2.33 0 0 0-2.332 2.331v3.497a2.33 2.33 0 0 0 2.332 2.332h3.497a2.33 2.33 0 0 0 2.331-2.332v-3.497a2.33 2.33 0 0 0-2.331-2.331"/></svg>
